X: 109
T: Fuga ad quatuor
N: Derived from Mar3008-Fuga_ad_quatuor.krn
C: Johannes Martini
%%abc-version 2.0
%%abcx-abcm2ps-target-version 5.9.1 (29 Sep 2008)
%%abc-creator hum2abc beta
%%abcx-conversion-date 2019/02/17 07:19:43
%%abc-edited-by Jesse Rodin
%%abc-edited-by Chris Gage 10-30-2014
%%abcx-initial-encoding-date 2015/03/01/
%%humdrum-veritas 3034110802
%%humdrum-veritas-data 3727850071
%%linebreak <none>
%%barnumbers 0
L: 1/4
M: 4/2
Q: 1/2=120
%%staves [1 2 3 4]
V: 1 clef=treble
V: 2 clef=treble-8
V: 3 clef=treble-8
V: 4 clef=bass
K: C
[V:1] c4B2G2 | 
[V:2] z8 | 
[V:3] z8 | 
[V:4] z8 | 
[V:1] A4G2G2- | 
[V:2] z8 | 
[V:3] c4B2G2 | 
[V:4] z8 | 
[V:1] GFFEG4 | 
[V:2] z8 | 
[V:3] A4G2G2- | 
[V:4] F,4E,2C,2 | 
[V:1] z8 | 
[V:2] f4e2c2 | 
[V:3] GFFEG4 | 
[V:4] D,4C,2C,2- | 
[V:1] z4c4 | 
[V:2] d4c2c2- | 
[V:3] z8 | 
[V:4] C,B,,B,,A,,C,4 | 
[V:1] d2cBA2c2 | 
[V:2] cBBAc4 | 
[V:3] z4c4 | 
[V:4] z8 | 
[V:1] B2G2A4 | 
[V:2] z8 | 
[V:3] d2cBA2c2 | 
[V:4] z4F,4 | 
[V:1] B2z2A4 | 
[V:2] z4f4 | 
[V:3] B2G2A4 | 
[V:4] G,2F,E,D,2F,2 | 
[V:1] G3EF2F2 | 
[V:2] g2fed2f2 | 
[V:3] B2z2A4 | 
[V:4] E,2C,2D,4 | 
[V:1] G4z2d2 | 
[V:2] e2c2d4 | 
[V:3] G3EF2F2 | 
[V:4] E,2z2D,4 | 
[V:1] G2c2d2d2 | 
[V:2] e2z2d4 | 
[V:3] G4z2d2 | 
[V:4] C,3A,,B,,2B,,2 | 
[V:1] e3dd4 | 
[V:2] c3AB2B2 | 
[V:3] G2c2d2d2 | 
[V:4] C,4z2G,2 | 
[V:1] c2Ac2B/A/B2 | 
[V:2] c4z2g2 | 
[V:3] e3dd4 | 
[V:4] C,2F,2G,2G,2 | 
[V:1] c4z4 | 
[V:2] c2f2g2g2 | 
[V:3] c2Ac2B/A/B2 | 
[V:4] A,3G,G,4 | 
[V:1] c4B2c2 | 
[V:2] a3gg4 | 
[V:3] c4z4 | 
[V:4] F,2D,F,2E,/D,/E,2 | 
[V:1] A4G3A | 
[V:2] f2df2e/d/e2 | 
[V:3] c4B2c2 | 
[V:4] F,4z4 | 
[V:1] F4z2C2 | 
[V:2] f4z4 | 
[V:3] A4G3A | 
[V:4] F,4E,2F,2 | 
[V:1] D2F2C2A2 | 
[V:2] f4e2f2 | 
[V:3] F4z2C2 | 
[V:4] D,4C,3D, | 
[V:1] Bd2BcBA2- | 
[V:2] d4c3d | 
[V:3] D2F2C2A2 | 
[V:4] B,,4z2F,,2 | 
[V:1] A2G2A3B | 
[V:2] B4z2F2 | 
[V:3] Bd2BcBA2- | 
[V:4] G,,2B,,2F,,2D,2 | 
[V:1] cde2A4 | 
[V:2] G2B2F2d2 | 
[V:3] A2G2A3B | 
[V:4] E,G,2E,F,E,D,2- | 
[V:1] z8 | 
[V:2] eg2efed2- | 
[V:3] cde2A4 | 
[V:4] D,2C,2D,3E, | 
[V:1] z4z2d2 | 
[V:2] d2^c2d3e | 
[V:3] z8 | 
[V:4] F,G,A,2D,4 | 
[V:1] c2A2B2B2 | 
[V:2] fga2d4 | 
[V:3] z4z2d2 | 
[V:4] z8 | 
[V:1] c3BGABc | 
[V:2] z8 | 
[V:3] c2A2B2B2 | 
[V:4] z4z2G,2 | 
[V:1] A4G2G2- | 
[V:2] z4z2g2 | 
[V:3] c3BGABc | 
[V:4] F,2D,2E,2E,2 | 
[V:1] GFFEG4 | 
[V:2] f2d2e2e2 | 
[V:3] A4G2G2- | 
[V:4] F,3E,C,D,E,F, | 
[V:1] A2GFE4 | 
[V:2] f3ecdef | 
[V:3] GFFEG4 | 
[V:4] D,4C,2C,2- | 
[V:1] z4c2e2 | 
[V:2] d4c2c2- | 
[V:3] A2GFE4 | 
[V:4] C,B,,B,,A,,C,4 | 
[V:1] d4c2Ac- | 
[V:2] cBBAc4 | 
[V:3] z4c2e2 | 
[V:4] D,2C,B,,A,,4 | 
[V:1] cB/A/B2c4 | 
[V:2] d2cBA4 | 
[V:3] d4c2Ac- | 
[V:4] z4F,2A,2 | 
[V:1] z4c4 | 
[V:2] z4f2a2 | 
[V:3] cB/A/B2c4 | 
[V:4] G,4F,2D,F,- | 
[V:1] B2c2A4 | 
[V:2] g4f2df- | 
[V:3] z4c4 | 
[V:4] F,E,/D,/E,2F,4 | 
[V:1] G3AF4 |]  
[V:2] fe/d/e2f4 |]  
[V:3] B2c2A4 |]  
[V:4] z4F,4 |]  



